X: 211
P: Longways for as many as will
M: 6/4
L: 1/8
K: C
|:\
c3dc2 B3AG2 | A4A2 G3FE2 |\
e2g2g2 g3fe2 | fga2a2 a3gf2 |
efg2g2 e3dc2 | d6 G6 |\
E2G2G2 G3FE2 | FGA2A2 A3GF2 |\

